X:1
T:Title
%%score { ( 1 4 ) | ( 2 3 ) }
L:1/8
M:4/4
K:Eb
V:1 treble nm="Grand Piano"
V:4 treble 
V:2 bass 
V:3 bass 
V:1
 z4 z2[Q:1/4=96] [EG][FA] | [GB][GB][Ac][GB] [EG]2 [EG][FA] | [GB][GB][Ac][GB] [EG]2 [EG][FA] | %3
 [GB][Ge][GB][Ge] d2 c>d | c4 [DB]2 [DB][DA] |[M:3/4] [DF][DF] [DF][EG] [FA]2 |[M:1/4] [GB][FA] | %7
[M:4/4] GGG[FA] [GB]2 [GB][GB] | cedc B2 Be |[M:11/16] e-<ed-<d[Ge]3/2 |[M:3/8] edA | %11
[M:4/4] d6 z2 | B6 B2 | B6 A2 |[M:5/8] G3 z2 |[M:3/8] edA |[M:4/4] d6 z2 | B6 z2 | %18
 [DFB]3 [DFB] [B,EG]2 [A,DF]2 |[M:3/4] [G,B,E]6 |] %20
V:2
 z4 z2 [E,B,][E,B,] | [E,E][E,E][E,E][E,E] [E,B,]2 [E,B,][E,B,] | %2
 [E,E][E,E][E,E][E,E] [E,B,]2 [E,B,][E,B,] | [E,B,][E,B,][E,B,][E,B,] [F,B,F]2 [F,=A,E]>[F,B,F] | %4
 [F,=A,E]4 [B,,B,]2 [B,,B,][B,,B,] |[M:3/4] [B,,B,][B,,B,] [B,,B,][B,,B,] [B,,B,]2 | %6
[M:1/4] [B,,B,][B,,B,] |[M:4/4] [E,B,E][E,B,E][E,B,E][E,B,] [E,E]2 [E,E][E,E] | %8
 [A,EA][A,CA][=A,D_G][A,EG] [B,E=G]2 [B,EG][B,EG] |[M:11/16] [EG]-<[EG][FA]-<[FA][K:bass][E,E]3/2 | %10
[M:3/8] z3 |[M:4/4] z [B,D][B,D][B,D] .[B,D]2 z2 | z [E,E][E,E][E,E] [E,E]2 [E,E]E, | %13
 B,,B,,B,,B,, B,,2 [B,,B,][B,,B,] |[M:5/8] [E,B,E][E,B,][E,B,] [E,B,][E,E] |[M:3/8] z3 | %16
[M:4/4] z [B,D][B,D][B,D] .[B,D]2 z2 | z [E,E][E,E][E,E] [E,E]2 [E,E]>[E,E] | B,,3 B,, B,,2 B,,2 | %19
[M:3/4] E,6 |] %20
V:3
 x8 | x8 | x8 | x8 | x8 |[M:3/4] x6 |[M:1/4] x2 |[M:4/4] x8 | x8 | %9
[M:11/16] B,/-B,/-B,/-B,/-B,-<B,[K:bass] z/ z |[M:3/8] x3 |[M:4/4] x8 | x8 | x8 |[M:5/8] x5 | %15
[M:3/8] x3 |[M:4/4] x8 | x8 | x8 |[M:3/4] x6 |] %20
V:4
 x8 | x8 | x8 | x8 | x8 |[M:3/4] x6 |[M:1/4] x2 |[M:4/4] x8 | x8 |[M:11/16] x11/2 |[M:3/8] x3 | %11
[M:4/4] z AAA AdcG | z GGG G2 G[EG] | [DF][DF][DF][DG] [DA]2 FF |[M:5/8] z EE [FA][GB] | %15
[M:3/8] x3 |[M:4/4] z AAA AdcG | z GGG G2 [GB]>[GB] | x8 |[M:3/4] x6 |] %20

